X:1
T:Spend One Hour with Jesus
T:Edwin Othello Excell
T:Spend One Hour with Jesus
T:Public Domain
T:Public Domain
C:Edwin Othello Excell
Z:Public Domain
%%score ( 1 2 ) 3
L:1/8
M:3/4
K:Ab
V:1 treble 
V:2 treble 
V:3 bass 
V:1
 [Ec]>[Ec] | [Ec]3 [DB] [CA]>[DF] | [CE]4 [EA]>[EA] | [EB]4 [EA]2 | [Ec]2 [EB]2 [Ec]>[Ec] | %5
w: 1.~Wear- y|soul by sin op-|pressed, Spend one|hour with|Je- sus; He will|
w: 2.~Do you|fear the gath- ’ring|gloom? Spend one|hour with|Je- sus; In the|
w: 3.~Ev- ’ry|need He will su-|pply, Spend one|hour with|Je- sus; He a-|
w: 4.~All a-|long life’s storm- y|way, Spend one|hour with|Je- sus; Call up-|
 [Ec]3 [DB] [CA]>[DF] | [CE]4 [EA]>[EA] | [Ae]4 [CA]2 | [DB]2 [CA]2 [EB]>[EB] | [EB]3 E [EA]>[EB] | %10
w: give your spir- it|rest, Spend one|hour with|Je- sus: He has|felt your grief be-|
w: si- lent in- ner|room, Spend one|hour with|Je- sus: He will|speak un- to your|
w: lone can sa- tis-|fy, Spend one|hour with|Je- sus: Oh, the|mer- cy He will|
w: on Him day by|day, Spend one|hour with|Je- sus: Tell Him|all— He is your|
 [Ec]4 [Ec]>[Ec] | [=Ec]3 [EG] [FA]>[GB] | [FA]4 [FA]>[FA] | [FA]3 [FA] [EG]>[DF] | %14
w: Num- bered all|your sor- rows o’er,|He will ev-|’ry joy re- store;|
w: Make your ev-|’ry heart- ache whole,|Point you to|the heav- ’nly goal;|
w: Oh, the grace|He will be- stow,|Grace to con-|quer ev- ’ry foe;|
w: He will count-|less bless- ings send,|He will keep|you to the end;|
 [CE]4 [EA]>[EA] | [Ae]4 [CA]2 | [DB]2 [CA]2 |] %17
w: Spend one hour|with Je-|sus. *|
w: Spend one hour|with Je-|sus. *|
w: Spend one hour|with Je-|sus. *|
w: Spend one hour|with Je-|sus. *|
V:2
 x2 | x6 | x6 | x6 | x6 | x6 | x6 | x6 | x6 | x3 E x2 | x6 | x6 | x6 | x6 | x6 | x6 | x4 |] %17
w: |||||||||fore,||||||||
w: |||||||||soul,||||||||
w: |||||||||show,||||||||
w: |||||||||Friend,||||||||
V:3
 [A,,A,]>[A,,A,] | [A,,E,]3 [A,,E,] [A,,E,]>[A,,G,] | [A,,A,]4 [C,A,]>[C,A,] | [E,D]4 [E,C]2 | %4
 [E,A,]2 [E,G,]2 [A,,A,]>[A,,A,] | [A,,E,]3 [A,,E,] [A,,E,]>[A,,G,] | [A,,A,]4 [C,A,]>[C,A,] | %7
 [E,C]4 [E,E]2 | [E,G,]2 [A,,A,]2 [E,G,]>[E,G,] | [E,G,]3 [D,G,] [C,A,]>[E,G,] | %10
 [A,,A,]4 [A,,A,]>[A,,A,] | [C,G,]3 [C,C] [C,C]>[C,C] | [F,C]4 [D,D]>[D,D] | %13
 [D,D]3 [D,A,] [D,A,]>[D,A,] | [A,,A,]4 [C,A,]>[C,A,] | [E,C]4 [E,E]2 | [E,G,]2 [A,,A,]2 |] %17

